X:1
T: Jolly Tars
C:
R:Reel
Q: 232
K:F
M:4/4
L:1/8
|:cB|AF Ac dB df|ec eg f2 fe|df ed cA fe|dc BA G2 cB|
AF Ac dB df|ec eg f2 fe|db ag fe de|f2 f2 f2 gf|
ec eg b2 ag|fc fa c'2 a2|g^f ga ba g=f|e2 c2 c2 cB|
AF Ac dB df|ec eg f2 fe|db ag fe de|f2 F2 F2:|
